X:261
T:New Copperplate
Z: id:dc-reel-241
M:C
L:1/8
K:G Major
cAFA|G2dG BGdG|G2dG BGGB|A2eA cAeA|A2eB cAFA|!
G2dG BGdG|G2dG BGGB|ABcd efgb|aged:|!
^cdef|g2gf gfef|gedc BGG2|eaag ageg|aged ^cdef|!
g2gf gbaf|gedc BGGB|ABcd efgb|aged:|!